src/assets/filled/DirectUp.svg

<svg width="24" height="24" viewBox="0 0 24 24"  xmlns="http://www.w3.org/2000/svg">
<path d="M17.0199 21.2902L13.5399 19.5502C12.5699 19.0702 11.4399 19.0702 10.4699 19.5502L6.98991 21.2902C3.99991 22.7802 0.849913 19.5702 2.40991 16.6202L3.22991 15.0802C3.33991 14.8702 3.51991 14.7002 3.73991 14.6002L16.3799 8.90017C16.8999 8.67017 17.5099 8.88017 17.7699 9.38017L21.5799 16.6202C23.1399 19.5702 19.9999 22.7802 17.0199 21.2902Z" />
<path d="M15.6 7.69002L7.31996 11.42C6.38996 11.84 5.44996 10.84 5.92996 9.94002L8.96996 4.17002C10.26 1.72002 13.76 1.72002 15.05 4.17002L16.12 6.21002C16.4 6.76002 16.16 7.44002 15.6 7.69002Z" />
</svg>

<?xml version="1.0" encoding="UTF-8"?>
<svg width="24" height="24" viewBox="0 0 24 24" xmlns="http://www.w3.org/2000/svg">
 <path d="m17.02 21.29-3.48-1.74c-0.97-0.48-2.1-0.48-3.07 0l-3.48 1.74c-2.99 1.49-6.14-1.72-4.58-4.67l0.82-1.54c0.11-0.21 0.29-0.38 0.51-0.48l12.64-5.7c0.52-0.23 1.13-0.02 1.39 0.48l3.81 7.24c1.56 2.95-1.58 6.16-4.56 4.67z"/>
 <path d="m15.6 7.69-8.28 3.73c-0.93 0.42-1.87-0.58-1.39-1.48l3.04-5.77c1.29-2.45 4.79-2.45 6.08 0l1.07 2.04c0.28 0.55 0.04 1.23-0.52 1.48z"/>
</svg>
